X:1
T:Gigue
C:Steve Waring 
F:http://simonwascher.info
Z:abc transcription Simon Wascher
M:6/8
L:1/8
K:A minor
E |\
A2B cBA | GAB A2E | A2B cBA | d3-d cB |\
A2B cBA | GAB AEF | GFG E2B | A3-A3 :|
eae dgd | c2B cBA | eae dgd | c2B A3 |\
eae dgd | c2B cBA | eae dgd | c2B A3 ||
cde cBA | cde cBA | cde cBA | GAB A2A |\
cde cBA | cde cBA | cde cBA | GAB A2 |]
%%wordsfont Times-Italic 11pt
W:aus Simon Waschers TradArchiv
